packages/core/src/svgs/xpx.svg

<svg width="24" height="24" viewBox="0 0 24 24" fill="none" xmlns="http://www.w3.org/2000/svg">
<g clip-path="url(#clip0_31_21002)">
<path d="M0 0H24V24H0V0Z" fill="#F0F3FA"/>
<path d="M9.51409 6.17285C7.70509 6.54571 5.8618 7.31285 5.1658 7.64928C4.99094 10.1779 5.84637 12.6297 6.29594 13.5396C7.70937 11.7636 10.2997 9.81099 10.9614 9.35799C11.4109 9.05028 11.2451 8.63799 11.1242 8.41728C10.6768 7.59871 9.86423 6.57999 9.51366 6.17285H9.51409Z" fill="#F3A91D"/>
<path d="M18.427 7.44314C15.5556 6.06614 12.2762 5.92472 10.9956 6.02586C12.1433 6.69743 12.8067 7.57386 13.1183 7.79886C13.3682 7.97886 13.714 7.92743 13.8559 7.879C15.3769 7.24214 17.5373 7.32314 18.427 7.44314Z" fill="#EF6622"/>
<path d="M18.8518 8.14496C18.9568 11.3022 17.417 14.4878 16.6335 15.6861C16.6335 15.4658 15.3932 11.6365 14.9844 10.7858C14.6574 10.1048 14.7761 9.7431 14.9844 9.59739C16.6425 8.43553 18.2535 8.14496 18.8518 8.14496Z" fill="#79B6E2"/>
<path d="M11.931 11.1082C9.9081 11.9036 7.52396 13.6037 6.58496 14.3546C7.95939 17.3383 10.7948 19.4567 12.0407 20.1429C13.9315 18.9493 15.4487 17.2877 15.9707 16.6063C15.174 14.52 13.305 11.7022 12.9201 11.2462C12.6124 10.8815 12.1705 11.0135 11.931 11.1082Z" fill="#1FB4AC"/>
</g>
<defs>
<clipPath id="clip0_31_21002">
<rect width="24" height="24" fill="white"/>
</clipPath>
</defs>
</svg>

<svg xmlns="http://www.w3.org/2000/svg" width="24" height="24" fill="none" viewBox="0 0 24 24"><g clip-path="url(#a)"><path fill="#F0F3FA" d="M0 0h24v24H0z"/><path fill="#F3A91D" d="M9.514 6.173c-1.809.373-3.652 1.14-4.348 1.476-.175 2.529.68 4.98 1.13 5.89 1.413-1.775 4.004-3.728 4.665-4.181.45-.308.284-.72.163-.94-.447-.82-1.26-1.838-1.61-2.245"/><path fill="#EF6622" d="M18.427 7.443c-2.871-1.377-6.15-1.518-7.431-1.417 1.147.671 1.81 1.548 2.122 1.773.25.18.596.128.738.08 1.52-.637 3.681-.556 4.571-.436"/><path fill="#79B6E2" d="M18.852 8.145c.105 3.157-1.435 6.343-2.218 7.541 0-.22-1.24-4.05-1.65-4.9-.327-.681-.208-1.043 0-1.189 1.658-1.161 3.27-1.452 3.868-1.452"/><path fill="#1FB4AC" d="M11.931 11.108c-2.023.796-4.407 2.496-5.346 3.247 1.374 2.983 4.21 5.102 5.456 5.788 1.89-1.194 3.408-2.855 3.93-3.537-.797-2.086-2.666-4.904-3.05-5.36-.309-.364-.75-.232-.99-.138"/></g><defs><clipPath id="a"><path fill="#fff" d="M0 0h24v24H0z"/></clipPath></defs></svg>
